agir/groups/components/groupPage/images/display-name-announcement-bg.svg

<svg width="102" height="112" viewBox="0 0 102 112" fill="none" xmlns="http://www.w3.org/2000/svg">
<path d="M21 48.5C21 31.103 35.103 17 52.5 17C69.897 17 84 31.103 84 48.5C84 65.897 69.897 80 52.5 80C35.103 80 21 65.897 21 48.5Z" fill="white"/>
<path fill-rule="evenodd" clip-rule="evenodd" d="M52.5006 81.2863C34.3935 81.2863 19.7148 66.6076 19.7148 48.5006C19.7148 30.3935 34.3935 15.7148 52.5006 15.7148C70.6076 15.7148 85.2863 30.3935 85.2863 48.5006C85.2863 66.6076 70.6076 81.2863 52.5006 81.2863ZM52.5006 17.0006C35.1036 17.0006 21.0006 31.1036 21.0006 48.5006C21.0006 65.8975 35.1036 80.0006 52.5006 80.0006C69.8975 80.0006 84.0006 65.8975 84.0006 48.5006C84.0006 31.1036 69.8975 17.0006 52.5006 17.0006Z" fill="#571AFF"/>
<path d="M69.8583 75.1436C64.8853 78.2239 59.1238 79.9036 53.2195 79.9944C47.3152 80.0853 41.5014 78.5838 36.4297 75.6581C37.3219 74.0516 38.4524 72.5801 39.7852 71.2903C41.8416 69.2915 44.3443 67.7754 47.1011 66.8583C49.8578 65.9413 52.7952 65.6477 55.6875 66.0001C58.5798 66.3526 61.3502 67.3416 63.7857 68.8914C66.2212 70.4411 68.257 72.5103 69.7368 74.9399C69.776 75.0055 69.8189 75.0746 69.8583 75.1436Z" fill="#571AFF"/>
<path d="M51.7633 60.8429C61.03 60.8429 68.5421 53.3308 68.5421 44.064C68.5421 34.7973 61.03 27.2852 51.7633 27.2852C42.4965 27.2852 34.9844 34.7973 34.9844 44.064C34.9844 53.3308 42.4965 60.8429 51.7633 60.8429Z" fill="#000A2C"/>
<path d="M64.7994 55.9953C68.1525 49.9184 65.8982 42.2991 59.7644 38.9772C53.6305 35.6552 45.9399 37.8886 42.5869 43.9655C39.2338 50.0424 41.4881 57.6617 47.6219 60.9837C53.7557 64.3056 61.4464 62.0722 64.7994 55.9953Z" fill="#FFB8B8"/>
<path d="M40.5742 42.6043C43.5238 44.6421 47.0246 45.7266 50.6069 45.7123C49.329 46.6004 47.8743 47.2003 46.343 47.4707C51.1058 48.4948 56.0282 48.5226 60.8022 47.5522C61.8634 47.3816 62.8874 47.0291 63.8292 46.51C64.2985 46.2473 64.7073 45.8885 65.0292 45.457C65.3511 45.0255 65.5788 44.5308 65.6975 44.0053C66.0147 42.1887 64.6026 40.5382 63.135 39.4259C60.8881 37.7488 58.2974 36.5934 55.5504 36.0431C52.8033 35.4929 49.9686 35.5615 47.2513 36.2442C45.477 36.704 43.6995 37.4807 42.5471 38.9091C41.3946 40.3374 41.0532 42.5395 42.1512 44.0103L40.5742 42.6043Z" fill="#000A2C"/>
<rect x="19" y="86" width="68" height="11" fill="#F5E30F"/>
</svg>

<svg width="102" height="112" fill="none" xmlns="http://www.w3.org/2000/svg"><path d="M21 48.5C21 31.103 35.103 17 52.5 17S84 31.103 84 48.5 69.897 80 52.5 80 21 65.897 21 48.5Z" fill="#fff"/><path fill-rule="evenodd" clip-rule="evenodd" d="M52.5 81.286c-18.106 0-32.785-14.678-32.785-32.785 0-18.107 14.679-32.786 32.786-32.786S85.286 30.393 85.286 48.5c0 18.107-14.678 32.785-32.785 32.785Zm0-64.285C35.105 17 21 31.104 21 48.5 21 65.897 35.105 80 52.5 80 69.898 80 84 65.897 84 48.5 84 31.104 69.898 17 52.5 17Z" fill="#571AFF"/><path d="M69.858 75.144a32.57 32.57 0 0 1-16.639 4.85 32.62 32.62 0 0 1-16.79-4.336 18.747 18.747 0 0 1 3.356-4.368 19.175 19.175 0 0 1 7.316-4.432A19.682 19.682 0 0 1 55.688 66a19.478 19.478 0 0 1 8.098 2.891 18.728 18.728 0 0 1 5.95 6.049c.04.066.083.135.122.204Z" fill="#571AFF"/><path d="M51.763 60.843c9.267 0 16.78-7.512 16.78-16.779s-7.513-16.779-16.78-16.779c-9.267 0-16.779 7.512-16.779 16.779s7.512 16.779 16.78 16.779Z" fill="#000A2C"/><path d="M64.8 55.995c3.353-6.077 1.098-13.696-5.036-17.018-6.134-3.322-13.824-1.088-17.177 4.989-3.353 6.076-1.099 13.696 5.035 17.018 6.134 3.322 13.824 1.088 17.177-4.989Z" fill="#FFB8B8"/><path d="M40.574 42.604a17.526 17.526 0 0 0 10.033 3.108 10.746 10.746 0 0 1-4.264 1.759 35.315 35.315 0 0 0 14.46.081 9.343 9.343 0 0 0 3.026-1.042 3.833 3.833 0 0 0 1.869-2.505c.317-1.816-1.095-3.467-2.563-4.58a18.858 18.858 0 0 0-15.884-3.182c-1.774.461-3.551 1.238-4.704 2.666-1.152 1.428-1.494 3.63-.396 5.101l-1.577-1.406Z" fill="#000A2C"/><path fill="#F5E30F" d="M19 86h68v11H19z"/></svg>
